X: 4132
T: Blue Bike, The
R: reel
M: 4/4
K: Gmajor
dc|:B3G AGFE|DFAF G~B3|cegc Bdgb|agfe dBcA|
BG~G2 AGFE|DFAF G~B|cegc BdGB|AGFG AGG2:|
|:Begf eB~B2|eBgB eB~B2|cegc Bdgb|agfe dBcA|
Begf eB~B2|eBgB eB~B2|cegc Bdgb|1 agfg e2dc:|2 agfg e2||

